SVG/binoculars.svg

<?xml version="1.0" encoding="utf-8"?>
<!-- Generated by IcoMoon.io -->
<!DOCTYPE svg PUBLIC "-//W3C//DTD SVG 1.1//EN" "http://www.w3.org/Graphics/SVG/1.1/DTD/svg11.dtd">
<svg version="1.1" xmlns="http://www.w3.org/2000/svg" xmlns:xlink="http://www.w3.org/1999/xlink" width="14" height="14" viewBox="0 0 14 14">
<path fill="#444444" d="M5.5 2.5v6q0 0.203-0.148 0.352t-0.352 0.148v4.5q0 0.203-0.148 0.352t-0.352 0.148h-4q-0.203 0-0.352-0.148t-0.148-0.352v-4l1.945-6.82q0.055-0.18 0.242-0.18h3.313zM8 2.5v5.5h-2v-5.5h2zM14 9.5v4q0 0.203-0.148 0.352t-0.352 0.148h-4q-0.203 0-0.352-0.148t-0.148-0.352v-4.5q-0.203 0-0.352-0.148t-0.148-0.352v-6h3.313q0.187 0 0.242 0.18zM5.75 0.25v1.75h-2.75v-1.75q0-0.109 0.070-0.18t0.18-0.070h2.25q0.109 0 0.18 0.070t0.070 0.18zM11 0.25v1.75h-2.75v-1.75q0-0.109 0.070-0.18t0.18-0.070h2.25q0.109 0 0.18 0.070t0.070 0.18z"></path>
</svg>

<svg xmlns="http://www.w3.org/2000/svg" viewBox="0 0 14 14"><path d="M5.5 2.5v6q0 .203-.148.352T5 9v4.5q0 .203-.148.352T4.5 14h-4q-.203 0-.352-.148T0 13.5v-4l1.945-6.82Q2 2.5 2.187 2.5H5.5zm2.5 0V8H6V2.5h2zm6 7v4q0 .203-.148.352T13.5 14h-4q-.203 0-.352-.148T9 13.5V9q-.203 0-.352-.148T8.5 8.5v-6h3.313q.187 0 .242.18zM5.75.25V2H3V.25q0-.11.07-.18T3.25 0H5.5q.11 0 .18.07t.07.18zm5.25 0V2H8.25V.25q0-.11.07-.18T8.5 0h2.25q.11 0 .18.07t.07.18z" /></svg>
